X:0828
T:"The Humours Of Ballingarry"     (jig)  0828
C:Unattributed
B:O'Neill's Music Of Ireland (The 1850) Lyon & Healy, Chicago, 1903 edition
Z:FROM O'NEILL'S TO NOTEWORTHY, FROM NOTEWORTHY TO ABC, MIDI AND .TXT BY VINCE
BRENNAN July 2003 (HTTP://WWW.SOSYOURMOM.COM)
I:abc2nwc
M:6/8
L:1/8
K:G
A|BGG dGG|cAG FGA|BGG BdB|cAF G2A|
BGG dGG|cAG FGA|def gdB|cAF G2:|
|:B|def g2-~g|edc BAG|eaa aga|bge edB|
def gfg|edc BAB|GBd gdB|cAF G2:|
